packages/ui-icons/src/Service-logos/24/Zoom.svg

<svg viewBox="0 0 32 32" fill="none" xmlns="http://www.w3.org/2000/svg">
<path d="M16 28C22.6274 28 28 22.6274 28 16C28 9.37258 22.6274 4 16 4C9.37258 4 4 9.37258 4 16C4 22.6274 9.37258 28 16 28Z" fill="#2D8CFF"/>
<path fill-rule="evenodd" clip-rule="evenodd" d="M22.6 12.6187L20 14.6936V17.3144L22.6 19.3893C22.784 19.543 23 19.5905 23 19.1708V12.8371C23 12.463 22.8267 12.4159 22.6 12.6187ZM9 17.5751V12.8501C9 12.6569 9.17208 12.5 9.38436 12.5H16.8846C18.0525 12.5 19 13.3618 19 14.4249V19.1499C19 19.3432 18.8279 19.5 18.6156 19.5H11.1154C9.94753 19.5 9 18.6382 9 17.5751Z" fill="white"/>
</svg>

<svg viewBox="0 0 32 32" fill="none" xmlns="http://www.w3.org/2000/svg"><path d="M16 28c6.627 0 12-5.373 12-12S22.627 4 16 4 4 9.373 4 16s5.373 12 12 12Z" fill="#2D8CFF"/><path fill-rule="evenodd" clip-rule="evenodd" d="M22.6 12.619 20 14.694v2.62l2.6 2.075c.184.154.4.201.4-.218v-6.334c0-.374-.173-.421-.4-.218ZM9 17.575V12.85c0-.193.172-.35.384-.35h7.5c1.168 0 2.116.862 2.116 1.925v4.725c0 .193-.172.35-.384.35h-7.5C9.947 19.5 9 18.638 9 17.575Z" fill="#fff"/></svg>
